; HEADER_BLOCK_START
; generated by Creality_Print V6.3.0.3420 on 2025-10-22 at 02:51:51
; total layer number: 244
; filament_density: 1.24
; filament_diameter: 1.75
; max_z_height: 48.80
; creality_uuid: b8034bfc-1201-4469-a61c-740a8e9c3a19
; HEADER_BLOCK_END

; MINX = 12.47
; MINY = 40.66
; MINZ = 0.00
; MAXX = 207.54
; MAXY = 179.34
; MAXZ = 48.77

; multicolor_method = 0 
; THUMBNAIL_BLOCK_START

;
; THUMBNAIL_BLOCK_END

; external perimeters extrusion width = 0.42mm
; perimeters extrusion width = 0.45mm
; infill extrusion width = 0.45mm
; solid infill extrusion width = 0.45mm
; top infill extrusion width = 0.42mm
; first layer extrusion width = 0.50mm

; EXECUTABLE_BLOCK_START
M73 P0 R270
M201 X5000 Y5000 Z1000 E5000
M203 X500 Y500 Z10 E50
M204 P5000 R1000 T5000
M205 X12.00 Y12.00 Z0.40 E5.00 ; sets the jerk limits, mm/sec
; max_print_temp = 60,200
;TYPE:Custom
G90 ; use absolute coordinates
M83 ; extruder relative mode
M104 S150 ; set temporary nozzle temp to prevent oozing during homing
M140 S60 ; set final bed temp
G4 S30 ; allow partial nozzle warmup
G28 ; home all axis and restore leveling
G1 Z50 F240
G1 X2.0 Y10 F3000
M104 S200 ; set final nozzle temp
M190 S60 ; wait for bed temp to stabilize
M109 S200 ; wait for nozzle temp to stabilize
M73 P0 R269
G1 Z0.28 F240
G92 E0
G1 X2.0 Y140 E10 F1500 ; prime the nozzle
G1 X2.3 Y140 F5000
G92 E0
G1 X2.3 Y10 E10 F1200 ; prime the nozzle
G92 E0
G90
G21
M83 ; use relative distances for extrusion
; filament start gcode
G1 E-1 F2400
G1 Z.2 F9600
M106 S0
;LAYER_CHANGE
;Z:0.2
;HEIGHT:0.2
;BEFORE_LAYER_CHANGE
;0.2
G92 E0

;_SET_FAN_SPEED_CHANGING_LAYER
M204 S500
M205 X9 Y9
; printing object body2.stl id:7160575489417945120 copy 0
G1 X198.461 Y52.154 Z.4 F9600
G1 Z.2
G1 E1 F2400
;TYPE:Inner wall
;WIDTH:0.499999
G1 F1800
G1 X198.413 Y52.144 E.0018
G1 X21.587 Y52.144 E6.38444
G1 X21.387 Y52.173 E.00731
G1 X21.135 Y52.314 E.01041
G1 X20.945 Y52.589 E.01206
G1 X20.902 Y52.829 E.00882
G1 X20.902 Y178.634 E4.54231
G1 X13.172 Y178.634 E.27909
G1 X13.172 Y41.366 E4.95621
G1 X206.828 Y41.366 E6.99213
G1 X206.828 Y178.634 E4.95621
M73 P0 R268
G1 X199.098 Y178.634 E.27909
G1 X199.098 Y52.829 E4.54231
G2 X198.705 Y52.209 I-.743 J.037 E.02772
G1 X198.5 Y52.163 E.00758
G1 X198.641 Y52.795 F9600
;TYPE:Outer wall
G1 F1800
G1 X198.563 Y52.657 E.0057
G1 X198.413 Y52.601 E.00582
G1 X21.558 Y52.601 E6.3855
G1 X21.412 Y52.683 E.00605
G1 X21.359 Y52.829 E.00562
G1 X21.359 Y179.091 E4.55882
G1 X12.715 Y179.091 E.3121
G1 X12.715 Y40.909 E4.98921
G1 X207.285 Y40.909 E7.02514
G1 X207.285 Y179.091 E4.98921
G1 X198.641 Y179.091 E.3121
G1 X198.641 Y52.835 E4.55862
G1 E-.7 F2400
;WIPE_START
G1 F1800
G1 X198.563 Y52.657 E-.05517
G1 X198.413 Y52.601 E-.04591
G1 X197.767 Y52.601 E-.18392
;WIPE_END
G1 E-.015 F2400
G1 X206.691 Y42.427 Z.4 F9600
G1 Z.4
G1 Z.2
G1 E1 F2400
;TYPE:Bottom surface
;WIDTH:0.50021
G1 F3000
G1 X205.972 Y41.709 E.03672
G1 X205.325 Y41.709 E.02336
G1 X206.485 Y42.868 E.05925
G1 X206.485 Y43.515 E.02336
G1 X204.679 Y41.709 E.09228
G1 X204.032 Y41.709 E.02336
G1 X206.485 Y44.162 E.12532
G1 X206.485 Y44.808 E.02336
G1 X203.385 Y41.709 E.15836
G1 X202.739 Y41.709 E.02336
G1 X206.485 Y45.455 E.19139
G1 X206.485 Y46.102 E.02336
G1 X202.092 Y41.709 E.22443
G1 X201.445 Y41.709 E.02336
G1 X206.485 Y46.749 E.25747
G1 X206.485 Y47.395 E.02336
G1 X200.798 Y41.709 E.29051
G1 X200.152 Y41.709 E.02336
G1 X206.485 Y48.042 E.32354
G1 X206.485 Y48.689 E.02336
G1 X199.505 Y41.709 E.35658
G1 X198.858 Y41.709 E.02336
G1 X206.485 Y49.335 E.38962
G1 X206.485 Y49.982 E.02336
G1 X198.212 Y41.709 E.42265
G1 X197.565 Y41.709 E.02336
G1 X206.485 Y50.629 E.45569
G1 X206.485 Y51.276 E.02336
G1 X196.918 Y41.709 E.48873
G1 X196.271 Y41.709 E.02336
G1 X206.485 Y51.922 E.52176
G1 X206.485 Y52.569 E.02336
G1 X195.625 Y41.709 E.5548
G1 X194.978 Y41.709 E.02336
G1 X206.485 Y53.216 E.58784
G1 X206.485 Y53.862 E.02336
G1 X194.331 Y41.709 E.62088
G1 X193.685 Y41.709 E.02336
G1 X206.485 Y54.509 E.65391
G1 X206.485 Y55.156 E.02336
G1 X193.038 Y41.709 E.68695
G1 X192.391 Y41.709 E.02336
G1 X206.485 Y55.802 E.71999
G1 X206.485 Y56.449 E.02336
G1 X191.745 Y41.709 E.75302
G1 X191.098 Y41.709 E.02336
G1 X206.485 Y57.096 E.78606
G1 X206.485 Y57.743 E.02336
G1 X190.451 Y41.709 E.8191
G1 X189.804 Y41.709 E.02336
G1 X206.485 Y58.389 E.85214
G1 X206.485 Y59.036 E.02336
G1 X189.158 Y41.709 E.88517
G1 X188.511 Y41.709 E.02336
G1 X206.485 Y59.683 E.91821
G1 X206.485 Y60.329 E.02336
G1 X199.441 Y53.285 E.35985
G1 X199.441 Y53.932 E.02336
G1 X206.485 Y60.976 E.35985
G1 X206.485 Y61.623 E.02336
G1 X199.441 Y54.579 E.35985
G1 X199.441 Y55.225 E.02336
G1 X206.485 Y62.27 E.35985
G1 X206.485 Y62.916 E.02336
G1 X199.441 Y55.872 E.35985
G1 X199.441 Y56.519 E.02336
G1 X206.485 Y63.563 E.35985
G1 X206.485 Y64.21 E.02336
G1 X199.441 Y57.165 E.35985
G1 X199.441 Y57.812 E.02336
G1 X206.485 Y64.856 E.35985
G1 X206.485 Y65.503 E.02336
G1 X199.441 Y58.459 E.35985
G1 X199.441 Y59.106 E.02336
G1 X206.485 Y66.15 E.35985
G1 X206.485 Y66.796 E.02336
G1 X199.441 Y59.752 E.35985
G1 X199.441 Y60.399 E.02336
G1 X206.485 Y67.443 E.35985
G1 X206.485 Y68.09 E.02336
G1 X199.441 Y61.046 E.35985
G1 X199.441 Y61.692 E.02336
G1 X206.485 Y68.737 E.35985
G1 X206.485 Y69.383 E.02336
G1 X199.441 Y62.339 E.35985
G1 X199.441 Y62.986 E.02336
G1 X206.485 Y70.03 E.35985
G1 X206.485 Y70.677 E.02336
G1 X199.441 Y63.633 E.35985
G1 X199.441 Y64.279 E.02336
G1 X206.485 Y71.323 E.35985
G1 X206.485 Y71.97 E.02336
G1 X199.441 Y64.926 E.35985
G1 X199.441 Y65.573 E.02336
G1 X206.485 Y72.617 E.35985
G1 X206.485 Y73.264 E.02336
G1 X199.441 Y66.219 E.35985
G1 X199.441 Y66.866 E.02336
G1 X206.485 Y73.91 E.35985
G1 X206.485 Y74.557 E.02336
G1 X199.441 Y67.513 E.35985
G1 X199.441 Y68.159 E.02336
G1 X206.485 Y75.204 E.35985
G1 X206.485 Y75.85 E.02336
G1 X199.441 Y68.806 E.35985
G1 X199.441 Y69.453 E.02336
M73 P0 R267
G1 X206.485 Y76.497 E.35985
G1 X206.485 Y77.144 E.02336
G1 X199.441 Y70.1 E.35985
G1 X199.441 Y70.746 E.02336
G1 X206.485 Y77.79 E.35985
G1 X206.485 Y78.437 E.02336
G1 X199.441 Y71.393 E.35985
G1 X199.441 Y72.04 E.02336
G1 X206.485 Y79.084 E.35985
G1 X206.485 Y79.731 E.02336
G1 X199.441 Y72.686 E.35985
G1 X199.441 Y73.333 E.02336
G1 X206.485 Y80.377 E.35985
G1 X206.485 Y81.024 E.02336
G1 X199.441 Y73.98 E.35985
G1 X199.441 Y74.627 E.02336
G1 X206.485 Y81.671 E.35985
G1 X206.485 Y82.317 E.02336
G1 X199.441 Y75.273 E.35985
G1 X199.441 Y75.92 E.02336
G1 X206.485 Y82.964 E.35985
G1 X206.485 Y83.611 E.02336
G1 X199.441 Y76.567 E.35985
G1 X199.441 Y77.213 E.02336
G1 X206.485 Y84.258 E.35985
G1 X206.485 Y84.904 E.02336
G1 X199.441 Y77.86 E.35985
G1 X199.441 Y78.507 E.02336
G1 X206.485 Y85.551 E.35985
G1 X206.485 Y86.198 E.02336
G1 X199.441 Y79.153 E.35985
G1 X199.441 Y79.8 E.02336
G1 X206.485 Y86.844 E.35985
G1 X206.485 Y87.491 E.02336
G1 X199.441 Y80.447 E.35985
G1 X199.441 Y81.094 E.02336
G1 X206.485 Y88.138 E.35985
G1 X206.485 Y88.784 E.02336
G1 X199.441 Y81.74 E.35985
G1 X199.441 Y82.387 E.02336
G1 X206.485 Y89.431 E.35985
G1 X206.485 Y90.078 E.02336
G1 X199.441 Y83.034 E.35985
G1 X199.441 Y83.68 E.02336
G1 X206.485 Y90.725 E.35985
G1 X206.485 Y91.371 E.02336
G1 X199.441 Y84.327 E.35985
G1 X199.441 Y84.974 E.02336
G1 X206.485 Y92.018 E.35985
G1 X206.485 Y92.665 E.02336
G1 X199.441 Y85.621 E.35985
G1 X199.441 Y86.267 E.02336
G1 X206.485 Y93.311 E.35985
G1 X206.485 Y93.958 E.02336
G1 X199.441 Y86.914 E.35985
G1 X199.441 Y87.561 E.02336
G1 X206.485 Y94.605 E.35985
G1 X206.485 Y95.252 E.02336
G1 X199.441 Y88.207 E.35985
G1 X199.441 Y88.854 E.02336
G1 X206.485 Y95.898 E.35985
G1 X206.485 Y96.545 E.02336
G1 X199.441 Y89.501 E.35985
G1 X199.441 Y90.147 E.02336
G1 X206.485 Y97.192 E.35985
G1 X206.485 Y97.838 E.02336
G1 X199.441 Y90.794 E.35985
G1 X199.441 Y91.441 E.02336
G1 X206.485 Y98.485 E.35985
G1 X206.485 Y99.132 E.02336
G1 X199.441 Y92.088 E.35985
G1 X199.441 Y92.734 E.02336
G1 X206.485 Y99.778 E.35985
G1 X206.485 Y100.425 E.02336
G1 X199.441 Y93.381 E.35985
G1 X199.441 Y94.028 E.02336
G1 X206.485 Y101.072 E.35985
G1 X206.485 Y101.719 E.02336
G1 X199.441 Y94.674 E.35985
G1 X199.441 Y95.321 E.02336
G1 X206.485 Y102.365 E.35985
G1 X206.485 Y103.012 E.02336
G1 X199.441 Y95.968 E.35985
G1 X199.441 Y96.615 E.02336
G1 X206.485 Y103.659 E.35985
G1 X206.485 Y104.305 E.02336
G1 X199.441 Y97.261 E.35985
G1 X199.441 Y97.908 E.02336
G1 X206.485 Y104.952 E.35985
G1 X206.485 Y105.599 E.02336
G1 X199.441 Y98.555 E.35985
G1 X199.441 Y99.201 E.02336
G1 X206.485 Y106.246 E.35985
G1 X206.485 Y106.892 E.02336
M73 P1 R267
G1 X199.441 Y99.848 E.35985
G1 X199.441 Y100.495 E.02336
G1 X206.485 Y107.539 E.35985
G1 X206.485 Y108.186 E.02336
G1 X199.441 Y101.141 E.35985
G1 X199.441 Y101.788 E.02336
G1 X206.485 Y108.832 E.35985
G1 X206.485 Y109.479 E.02336
G1 X199.441 Y102.435 E.35985
G1 X199.441 Y103.082 E.02336
G1 X206.485 Y110.126 E.35985
G1 X206.485 Y110.772 E.02336
G1 X199.441 Y103.728 E.35985
G1 X199.441 Y104.375 E.02336
G1 X206.485 Y111.419 E.35985
G1 X206.485 Y112.066 E.02336
G1 X199.441 Y105.022 E.35985
G1 X199.441 Y105.668 E.02336
G1 X206.485 Y112.713 E.35985
G1 X206.485 Y113.359 E.02336
G1 X199.441 Y106.315 E.35985
G1 X199.441 Y106.962 E.02336
G1 X206.485 Y114.006 E.35985
G1 X206.485 Y114.653 E.02336
G1 X199.441 Y107.609 E.35985
G1 X199.441 Y108.255 E.02336
G1 X206.485 Y115.299 E.35985
G1 X206.485 Y115.946 E.02336
G1 X199.441 Y108.902 E.35985
G1 X199.441 Y109.549 E.02336
G1 X206.485 Y116.593 E.35985
G1 X206.485 Y117.24 E.02336
G1 X199.441 Y110.195 E.35985
G1 X199.441 Y110.842 E.02336
G1 X206.485 Y117.886 E.35985
G1 X206.485 Y118.533 E.02336
G1 X199.441 Y111.489 E.35985
G1 X199.441 Y112.135 E.02336
G1 X206.485 Y119.18 E.35985
G1 X206.485 Y119.826 E.02336
G1 X199.441 Y112.782 E.35985
G1 X199.441 Y113.429 E.02336
G1 X206.485 Y120.473 E.35985
G1 X206.485 Y121.12 E.02336
G1 X199.441 Y114.076 E.35985
G1 X199.441 Y114.722 E.02336
G1 X206.485 Y121.766 E.35985
G1 X206.485 Y122.413 E.02336
G1 X199.441 Y115.369 E.35985
G1 X199.441 Y116.016 E.02336
G1 X206.485 Y123.06 E.35985
G1 X206.485 Y123.707 E.02336
G1 X199.441 Y116.662 E.35985
G1 X199.441 Y117.309 E.02336
G1 X206.485 Y124.353 E.35985
G1 X206.485 Y125 E.02336
G1 X199.441 Y117.956 E.35985
G1 X199.441 Y118.603 E.02336
G1 X206.485 Y125.647 E.35985
G1 X206.485 Y126.293 E.02336
G1 X199.441 Y119.249 E.35985
G1 X199.441 Y119.896 E.02336
G1 X206.485 Y126.94 E.35985
G1 X206.485 Y127.587 E.02336
G1 X199.441 Y120.543 E.35985
G1 X199.441 Y121.189 E.02336
G1 X206.485 Y128.233 E.35985
G1 X206.485 Y128.88 E.02336
G1 X199.441 Y121.836 E.35985
G1 X199.441 Y122.483 E.02336
G1 X206.485 Y129.527 E.35985
G1 X206.485 Y130.174 E.02336
G1 X199.441 Y123.129 E.35985
G1 X199.441 Y123.776 E.02336
G1 X206.485 Y130.82 E.35985
G1 X206.485 Y131.467 E.02336
G1 X199.441 Y124.423 E.35985
G1 X199.441 Y125.07 E.02336
G1 X206.485 Y132.114 E.35985
G1 X206.485 Y132.76 E.02336
G1 X199.441 Y125.716 E.35985
G1 X199.441 Y126.363 E.02336
G1 X206.485 Y133.407 E.35985
G1 X206.485 Y134.054 E.02336
G1 X199.441 Y127.01 E.35985
G1 X199.441 Y127.656 E.02336
G1 X206.485 Y134.701 E.35985
G1 X206.485 Y135.347 E.02336
G1 X199.441 Y128.303 E.35985
G1 X199.441 Y128.95 E.02336
G1 X206.485 Y135.994 E.35985
G1 X206.485 Y136.641 E.02336
G1 X199.441 Y129.597 E.35985
G1 X199.441 Y130.243 E.02336
G1 X206.485 Y137.287 E.35985
G1 X206.485 Y137.934 E.02336
G1 X199.441 Y130.89 E.35985
G1 X199.441 Y131.537 E.02336
G1 X206.485 Y138.581 E.35985
G1 X206.485 Y139.227 E.02336
G1 X199.441 Y132.183 E.35985
G1 X199.441 Y132.83 E.02336
G1 X206.485 Y139.874 E.35985
G1 X206.485 Y140.521 E.02336
G1 X199.441 Y133.477 E.35985
G1 X199.441 Y134.123 E.02336
G1 X206.485 Y141.168 E.35985
G1 X206.485 Y141.814 E.02336
G1 X199.441 Y134.77 E.35985
G1 X199.441 Y135.417 E.02336
G1 X206.485 Y142.461 E.35985
G1 X206.485 Y143.108 E.02336
G1 X199.441 Y136.064 E.35985
G1 X199.441 Y136.71 E.02336
G1 X206.485 Y143.754 E.35985
G1 X206.485 Y144.401 E.02336
G1 X199.441 Y137.357 E.35985
G1 X199.441 Y138.004 E.02336
G1 X206.485 Y145.048 E.35985
G1 X206.485 Y145.695 E.02336
G1 X199.441 Y138.65 E.35985
G1 X199.441 Y139.297 E.02336
G1 X206.485 Y146.341 E.35985
G1 X206.485 Y146.988 E.02336
G1 X199.441 Y139.944 E.35985
G1 X199.441 Y140.591 E.02336
G1 X206.485 Y147.635 E.35985
G1 X206.485 Y148.281 E.02336
G1 X199.441 Y141.237 E.35985
G1 X199.441 Y141.884 E.02336
G1 X206.485 Y148.928 E.35985
G1 X206.485 Y149.575 E.02336
G1 X199.441 Y142.531 E.35985
G1 X199.441 Y143.177 E.02336
G1 X206.485 Y150.221 E.35985
G1 X206.485 Y150.868 E.02336
G1 X199.441 Y143.824 E.35985
G1 X199.441 Y144.471 E.02336
G1 X206.485 Y151.515 E.35985
G1 X206.485 Y152.162 E.02336
G1 X199.441 Y145.117 E.35985
G1 X199.441 Y145.764 E.02336
G1 X206.485 Y152.808 E.35985
G1 X206.485 Y153.455 E.02336
G1 X199.441 Y146.411 E.35985
G1 X199.441 Y147.058 E.02336
G1 X206.485 Y154.102 E.35985
G1 X206.485 Y154.748 E.02336
G1 X199.441 Y147.704 E.35985
G1 X199.441 Y148.351 E.02336
G1 X206.485 Y155.395 E.35985
G1 X206.485 Y156.042 E.02336
G1 X199.441 Y148.998 E.35985
G1 X199.441 Y149.644 E.02336
G1 X206.485 Y156.689 E.35985
G1 X206.485 Y157.335 E.02336
G1 X199.441 Y150.291 E.35985
G1 X199.441 Y150.938 E.02336
G1 X206.485 Y157.982 E.35985
G1 X206.485 Y158.629 E.02336
G1 X199.441 Y151.585 E.35985
G1 X199.441 Y152.231 E.02336
G1 X206.485 Y159.275 E.35985
G1 X206.485 Y159.922 E.02336
G1 X199.441 Y152.878 E.35985
G1 X199.441 Y153.525 E.02336
G1 X206.485 Y160.569 E.35985
G1 X206.485 Y161.215 E.02336
G1 X199.441 Y154.171 E.35985
G1 X199.441 Y154.818 E.02336
G1 X206.485 Y161.862 E.35985
G1 X206.485 Y162.509 E.02336
G1 X199.441 Y155.465 E.35985
G1 X199.441 Y156.111 E.02336
G1 X206.485 Y163.156 E.35985
G1 X206.485 Y163.802 E.02336
G1 X199.441 Y156.758 E.35985
G1 X199.441 Y157.405 E.02336
G1 X206.485 Y164.449 E.35985
G1 X206.485 Y165.096 E.02336
G1 X199.441 Y158.052 E.35985
G1 X199.441 Y158.698 E.02336
G1 X206.485 Y165.742 E.35985
G1 X206.485 Y166.389 E.02336
G1 X199.441 Y159.345 E.35985
G1 X199.441 Y159.992 E.02336
G1 X206.485 Y167.036 E.35985
G1 X206.485 Y167.683 E.02336
G1 X199.441 Y160.638 E.35985
G1 X199.441 Y161.285 E.02336
G1 X206.485 Y168.329 E.35985
G1 X206.485 Y168.976 E.02336
G1 X199.441 Y161.932 E.35985
G1 X199.441 Y162.579 E.02336
G1 X206.485 Y169.623 E.35985
G1 X206.485 Y170.269 E.02336
G1 X199.441 Y163.225 E.35985
G1 X199.441 Y163.872 E.02336
G1 X206.485 Y170.916 E.35985
G1 X206.485 Y171.563 E.02336
G1 X199.441 Y164.519 E.35985
G1 X199.441 Y165.165 E.02336
G1 X206.485 Y172.209 E.35985
G1 X206.485 Y172.856 E.02336
G1 X199.441 Y165.812 E.35985
G1 X199.441 Y166.459 E.02336
G1 X206.485 Y173.503 E.35985
G1 X206.485 Y174.15 E.02336
G1 X199.441 Y167.105 E.35985
G1 X199.441 Y167.752 E.02336
G1 X206.485 Y174.796 E.35985
G1 X206.485 Y175.443 E.02336
G1 X199.441 Y168.399 E.35985
G1 X199.441 Y169.046 E.02336
G1 X206.485 Y176.09 E.35985
G1 X206.485 Y176.736 E.02336
G1 X199.441 Y169.692 E.35985
G1 X199.441 Y170.339 E.02336
G1 X206.485 Y177.383 E.35985
G1 X206.485 Y178.03 E.02336
G1 X199.441 Y170.986 E.35985
G1 X199.441 Y171.632 E.02336
G1 X206.1 Y178.291 E.34018
G1 X205.453 Y178.291 E.02336
G1 X199.441 Y172.279 E.30714
G1 X199.441 Y172.926 E.02336
G1 X204.807 Y178.291 E.2741
G1 X204.16 Y178.291 E.02336
G1 X199.441 Y173.573 E.24107
G1 X199.441 Y174.219 E.02336
G1 X203.513 Y178.291 E.20803
G1 X202.866 Y178.291 E.02336
G1 X199.441 Y174.866 E.17499
G1 X199.441 Y175.513 E.02336
G1 X202.22 Y178.291 E.14195
G1 X201.573 Y178.291 E.02336
G1 X199.441 Y176.159 E.10892
G1 X199.441 Y176.806 E.02336
G1 X200.926 Y178.291 E.07588
G1 X200.28 Y178.291 E.02336
G1 X199.441 Y177.453 E.04284
G1 X199.441 Y178.099 E.02336
G1 X199.839 Y178.497 E.02031
G1 E-.7 F2400
;WIPE_START
G1 F3000
G1 X199.441 Y178.099 E-.16027
G1 X199.441 Y177.662 E-.12473
;WIPE_END
G1 E-.015 F2400
G1 Z.4 F9600
G1 X198.162 Y52.006 Z.4
G1 Z.2
G1 E1 F2400
G1 F3000
G1 X187.864 Y41.709 E.52606
G1 X187.218 Y41.709 E.02336
G1 X197.31 Y51.801 E.51556
G1 X196.663 Y51.801 E.02336
G1 X186.571 Y41.709 E.51556
G1 X185.924 Y41.709 E.02336
G1 X196.016 Y51.801 E.51556
G1 X195.37 Y51.801 E.02336
G1 X185.277 Y41.709 E.51556
G1 X184.631 Y41.709 E.02336
G1 X194.723 Y51.801 E.51556
