; HEADER_BLOCK_START
; generated by Creality_Print V6.3.0.3420 on 2025-10-22 at 02:50:58
; total layer number: 244
; filament_density: 1.24
; filament_diameter: 1.75
; max_z_height: 48.80
; creality_uuid: c0480b92-454c-4583-88c2-a257f4997a37
; HEADER_BLOCK_END

; MINX = 12.47
; MINY = 26.94
; MINZ = 0.00
; MAXX = 207.54
; MAXY = 193.06
; MAXZ = 48.77

; multicolor_method = 0 
; THUMBNAIL_BLOCK_START

;
; THUMBNAIL_BLOCK_END

; external perimeters extrusion width = 0.42mm
; perimeters extrusion width = 0.45mm
; infill extrusion width = 0.45mm
; solid infill extrusion width = 0.45mm
; top infill extrusion width = 0.42mm
; first layer extrusion width = 0.50mm

; EXECUTABLE_BLOCK_START
M73 P0 R315
M201 X5000 Y5000 Z1000 E5000
M203 X500 Y500 Z10 E50
M204 P5000 R1000 T5000
M205 X12.00 Y12.00 Z0.40 E5.00 ; sets the jerk limits, mm/sec
; max_print_temp = 60,200
;TYPE:Custom
G90 ; use absolute coordinates
M83 ; extruder relative mode
M104 S150 ; set temporary nozzle temp to prevent oozing during homing
M140 S60 ; set final bed temp
G4 S30 ; allow partial nozzle warmup
G28 ; home all axis and restore leveling
G1 Z50 F240
G1 X2.0 Y10 F3000
M104 S200 ; set final nozzle temp
M190 S60 ; wait for bed temp to stabilize
M109 S200 ; wait for nozzle temp to stabilize
G1 Z0.28 F240
G92 E0
G1 X2.0 Y140 E10 F1500 ; prime the nozzle
G1 X2.3 Y140 F5000
G92 E0
M73 P0 R314
G1 X2.3 Y10 E10 F1200 ; prime the nozzle
G92 E0
G90
G21
M83 ; use relative distances for extrusion
; filament start gcode
G1 E-1 F2400
G1 Z.2 F9600
M106 S0
;LAYER_CHANGE
;Z:0.2
;HEIGHT:0.2
;BEFORE_LAYER_CHANGE
;0.2
G92 E0

;_SET_FAN_SPEED_CHANGING_LAYER
M204 S500
M205 X9 Y9
; printing object body1.stl id:7562608 copy 0
G1 X197.615 Y38.428 Z.4 F9600
G1 Z.2
G1 E1 F2400
;TYPE:Inner wall
;WIDTH:0.499999
G1 F1800
G1 X21.587 Y38.428 E6.35563
G1 X21.387 Y38.458 E.00731
G1 X21.135 Y38.598 E.01041
G1 X20.945 Y38.873 E.01206
G1 X20.902 Y39.113 E.00882
G1 X20.902 Y192.35 E5.53276
G1 X13.172 Y192.35 E.27909
G1 X13.172 Y27.65 E5.94666
G1 X206.828 Y27.65 E6.99213
G1 X206.828 Y192.35 E5.94666
G1 X199.098 Y192.35 E.27909
G1 X199.098 Y39.113 E5.53276
G2 X198.705 Y38.493 I-.743 J.037 E.02772
G1 X198.413 Y38.428 E.01082
G1 X197.655 Y38.428 E.02736
G1 X198.413 Y38.885 F9600
;TYPE:Outer wall
G1 F1800
G1 X21.558 Y38.885 E6.3855
G1 X21.412 Y38.967 E.00605
G1 X21.359 Y39.113 E.00562
G1 X21.359 Y192.807 E5.54927
G1 X12.715 Y192.807 E.3121
G1 X12.715 Y27.193 E5.97966
G1 X207.285 Y27.193 E7.02514
M73 P0 R313
G1 X207.285 Y192.807 E5.97966
G1 X198.641 Y192.807 E.3121
G1 X198.641 Y39.079 E5.55051
G1 X198.563 Y38.942 E.0057
G1 X198.45 Y38.899 E.00437
G1 E-.7 F2400
;WIPE_START
G1 F1800
G1 X197.45 Y38.899 E-.285
;WIPE_END
G1 E-.015 F2400
G1 X206.691 Y28.712 Z.4 F9600
G1 Z.4
G1 Z.2
G1 E1 F2400
;TYPE:Bottom surface
;WIDTH:0.500556
G1 F3000
G1 X205.971 Y27.993 E.03678
G1 X205.324 Y27.993 E.0234
G1 X206.485 Y29.154 E.05935
G1 X206.485 Y29.801 E.0234
G1 X204.677 Y27.993 E.09244
G1 X204.03 Y27.993 E.0234
G1 X206.485 Y30.448 E.12553
G1 X206.485 Y31.095 E.0234
G1 X203.383 Y27.993 E.15861
G1 X202.735 Y27.993 E.0234
G1 X206.485 Y31.742 E.1917
G1 X206.485 Y32.39 E.0234
G1 X202.088 Y27.993 E.22479
G1 X201.441 Y27.993 E.0234
G1 X206.485 Y33.037 E.25788
G1 X206.485 Y33.684 E.0234
G1 X200.794 Y27.993 E.29096
G1 X200.147 Y27.993 E.0234
G1 X206.485 Y34.331 E.32405
G1 X206.485 Y34.978 E.0234
G1 X199.499 Y27.993 E.35714
G1 X198.852 Y27.993 E.0234
G1 X206.485 Y35.626 E.39022
G1 X206.485 Y36.273 E.0234
G1 X198.205 Y27.993 E.42331
G1 X197.558 Y27.993 E.0234
G1 X206.485 Y36.92 E.4564
G1 X206.485 Y37.567 E.0234
G1 X196.911 Y27.993 E.48949
G1 X196.263 Y27.993 E.0234
G1 X206.485 Y38.214 E.52257
G1 X206.485 Y38.862 E.0234
G1 X195.616 Y27.993 E.55566
G1 X194.969 Y27.993 E.0234
G1 X206.485 Y39.509 E.58875
G1 X206.485 Y40.156 E.0234
G1 X194.322 Y27.993 E.62183
G1 X193.675 Y27.993 E.0234
G1 X206.485 Y40.803 E.65492
G1 X206.485 Y41.45 E.0234
G1 X193.027 Y27.993 E.68801
G1 X192.38 Y27.993 E.0234
G1 X206.485 Y42.098 E.72109
G1 X206.485 Y42.745 E.0234
G1 X191.733 Y27.993 E.75418
G1 X191.086 Y27.993 E.0234
G1 X206.485 Y43.392 E.78727
G1 X206.485 Y44.039 E.0234
G1 X190.439 Y27.993 E.82036
G1 X189.791 Y27.993 E.0234
G1 X206.485 Y44.686 E.85344
G1 X206.485 Y45.334 E.0234
G1 X189.144 Y27.993 E.88653
G1 X188.497 Y27.993 E.0234
G1 X206.485 Y45.981 E.91962
G1 X206.485 Y46.628 E.0234
G1 X199.441 Y39.584 E.36012
G1 X199.441 Y40.231 E.0234
G1 X206.485 Y47.275 E.36012
G1 X206.485 Y47.922 E.0234
G1 X199.441 Y40.878 E.36012
G1 X199.441 Y41.525 E.0234
G1 X206.485 Y48.57 E.36012
G1 X206.485 Y49.217 E.0234
G1 X199.441 Y42.173 E.36012
G1 X199.441 Y42.82 E.0234
G1 X206.485 Y49.864 E.36012
G1 X206.485 Y50.511 E.0234
G1 X199.441 Y43.467 E.36012
G1 X199.441 Y44.114 E.0234
G1 X206.485 Y51.158 E.36012
G1 X206.485 Y51.806 E.0234
G1 X199.441 Y44.761 E.36012
G1 X199.441 Y45.409 E.0234
G1 X206.485 Y52.453 E.36012
G1 X206.485 Y53.1 E.0234
G1 X199.441 Y46.056 E.36012
G1 X199.441 Y46.703 E.0234
G1 X206.485 Y53.747 E.36012
G1 X206.485 Y54.394 E.0234
G1 X199.441 Y47.35 E.36012
G1 X199.441 Y47.997 E.0234
G1 X206.485 Y55.042 E.36012
G1 X206.485 Y55.689 E.0234
G1 X199.441 Y48.645 E.36012
G1 X199.441 Y49.292 E.0234
G1 X206.485 Y56.336 E.36012
G1 X206.485 Y56.983 E.0234
G1 X199.441 Y49.939 E.36012
G1 X199.441 Y50.586 E.0234
G1 X206.485 Y57.63 E.36012
G1 X206.485 Y58.277 E.0234
G1 X199.441 Y51.233 E.36012
G1 X199.441 Y51.881 E.0234
G1 X206.485 Y58.925 E.36012
G1 X206.485 Y59.572 E.0234
G1 X199.441 Y52.528 E.36012
G1 X199.441 Y53.175 E.0234
G1 X206.485 Y60.219 E.36012
G1 X206.485 Y60.866 E.0234
G1 X199.441 Y53.822 E.36012
G1 X199.441 Y54.469 E.0234
G1 X206.485 Y61.513 E.36012
G1 X206.485 Y62.161 E.0234
G1 X199.441 Y55.117 E.36012
G1 X199.441 Y55.764 E.0234
G1 X206.485 Y62.808 E.36012
G1 X206.485 Y63.455 E.0234
G1 X199.441 Y56.411 E.36012
G1 X199.441 Y57.058 E.0234
G1 X206.485 Y64.102 E.36012
G1 X206.485 Y64.749 E.0234
G1 X199.441 Y57.705 E.36012
G1 X199.441 Y58.352 E.0234
G1 X206.485 Y65.397 E.36012
G1 X206.485 Y66.044 E.0234
G1 X199.441 Y59 E.36012
G1 X199.441 Y59.647 E.0234
G1 X206.485 Y66.691 E.36012
G1 X206.485 Y67.338 E.0234
G1 X199.441 Y60.294 E.36012
G1 X199.441 Y60.941 E.0234
G1 X206.485 Y67.985 E.36012
G1 X206.485 Y68.633 E.0234
G1 X199.441 Y61.588 E.36012
G1 X199.441 Y62.236 E.0234
G1 X206.485 Y69.28 E.36012
G1 X206.485 Y69.927 E.0234
G1 X199.441 Y62.883 E.36012
G1 X199.441 Y63.53 E.0234
G1 X206.485 Y70.574 E.36012
G1 X206.485 Y71.221 E.0234
G1 X199.441 Y64.177 E.36012
G1 X199.441 Y64.824 E.0234
G1 X206.485 Y71.869 E.36012
G1 X206.485 Y72.516 E.0234
G1 X199.441 Y65.472 E.36012
G1 X199.441 Y66.119 E.0234
G1 X206.485 Y73.163 E.36012
G1 X206.485 Y73.81 E.0234
G1 X199.441 Y66.766 E.36012
G1 X199.441 Y67.413 E.0234
G1 X206.485 Y74.457 E.36012
G1 X206.485 Y75.105 E.0234
G1 X199.441 Y68.06 E.36012
G1 X199.441 Y68.708 E.0234
G1 X206.485 Y75.752 E.36012
G1 X206.485 Y76.399 E.0234
G1 X199.441 Y69.355 E.36012
G1 X199.441 Y70.002 E.0234
G1 X206.485 Y77.046 E.36012
G1 X206.485 Y77.693 E.0234
G1 X199.441 Y70.649 E.36012
G1 X199.441 Y71.296 E.0234
G1 X206.485 Y78.341 E.36012
G1 X206.485 Y78.988 E.0234
G1 X199.441 Y71.944 E.36012
G1 X199.441 Y72.591 E.0234
G1 X206.485 Y79.635 E.36012
G1 X206.485 Y80.282 E.0234
G1 X199.441 Y73.238 E.36012
G1 X199.441 Y73.885 E.0234
G1 X206.485 Y80.929 E.36012
G1 X206.485 Y81.577 E.0234
G1 X199.441 Y74.532 E.36012
G1 X199.441 Y75.18 E.0234
G1 X206.485 Y82.224 E.36012
G1 X206.485 Y82.871 E.0234
G1 X199.441 Y75.827 E.36012
G1 X199.441 Y76.474 E.0234
G1 X206.485 Y83.518 E.36012
G1 X206.485 Y84.165 E.0234
G1 X199.441 Y77.121 E.36012
G1 X199.441 Y77.768 E.0234
G1 X206.485 Y84.812 E.36012
G1 X206.485 Y85.46 E.0234
G1 X199.441 Y78.416 E.36012
G1 X199.441 Y79.063 E.0234
G1 X206.485 Y86.107 E.36012
G1 X206.485 Y86.754 E.0234
G1 X199.441 Y79.71 E.36012
G1 X199.441 Y80.357 E.0234
G1 X206.485 Y87.401 E.36012
G1 X206.485 Y88.048 E.0234
G1 X199.441 Y81.004 E.36012
G1 X199.441 Y81.652 E.0234
G1 X206.485 Y88.696 E.36012
G1 X206.485 Y89.343 E.0234
G1 X199.441 Y82.299 E.36012
G1 X199.441 Y82.946 E.0234
G1 X206.485 Y89.99 E.36012
G1 X206.485 Y90.637 E.0234
G1 X199.441 Y83.593 E.36012
G1 X199.441 Y84.24 E.0234
G1 X206.485 Y91.284 E.36012
G1 X206.485 Y91.932 E.0234
G1 X199.441 Y84.887 E.36012
G1 X199.441 Y85.535 E.0234
G1 X206.485 Y92.579 E.36012
G1 X206.485 Y93.226 E.0234
G1 X199.441 Y86.182 E.36012
G1 X199.441 Y86.829 E.0234
G1 X206.485 Y93.873 E.36012
G1 X206.485 Y94.52 E.0234
G1 X199.441 Y87.476 E.36012
G1 X199.441 Y88.123 E.0234
G1 X206.485 Y95.168 E.36012
G1 X206.485 Y95.815 E.0234
G1 X199.441 Y88.771 E.36012
G1 X199.441 Y89.418 E.0234
G1 X206.485 Y96.462 E.36012
G1 X206.485 Y97.109 E.0234
G1 X199.441 Y90.065 E.36012
G1 X199.441 Y90.712 E.0234
G1 X206.485 Y97.756 E.36012
G1 X206.485 Y98.404 E.0234
G1 X199.441 Y91.359 E.36012
G1 X199.441 Y92.007 E.0234
G1 X206.485 Y99.051 E.36012
G1 X206.485 Y99.698 E.0234
G1 X199.441 Y92.654 E.36012
G1 X199.441 Y93.301 E.0234
G1 X206.485 Y100.345 E.36012
G1 X206.485 Y100.992 E.0234
G1 X199.441 Y93.948 E.36012
G1 X199.441 Y94.595 E.0234
G1 X206.485 Y101.64 E.36012
G1 X206.485 Y102.287 E.0234
G1 X199.441 Y95.243 E.36012
G1 X199.441 Y95.89 E.0234
G1 X206.485 Y102.934 E.36012
G1 X206.485 Y103.581 E.0234
G1 X199.441 Y96.537 E.36012
G1 X199.441 Y97.184 E.0234
G1 X206.485 Y104.228 E.36012
G1 X206.485 Y104.876 E.0234
G1 X199.441 Y97.831 E.36012
G1 X199.441 Y98.479 E.0234
G1 X206.485 Y105.523 E.36012
G1 X206.485 Y106.17 E.0234
G1 X199.441 Y99.126 E.36012
G1 X199.441 Y99.773 E.0234
G1 X206.485 Y106.817 E.36012
G1 X206.485 Y107.464 E.0234
M73 P0 R312
G1 X199.441 Y100.42 E.36012
G1 X199.441 Y101.067 E.0234
G1 X206.485 Y108.111 E.36012
G1 X206.485 Y108.759 E.0234
G1 X199.441 Y101.715 E.36012
G1 X199.441 Y102.362 E.0234
G1 X206.485 Y109.406 E.36012
G1 X206.485 Y110.053 E.0234
G1 X199.441 Y103.009 E.36012
G1 X199.441 Y103.656 E.0234
G1 X206.485 Y110.7 E.36012
G1 X206.485 Y111.347 E.0234
G1 X199.441 Y104.303 E.36012
G1 X199.441 Y104.951 E.0234
G1 X206.485 Y111.995 E.36012
G1 X206.485 Y112.642 E.0234
G1 X199.441 Y105.598 E.36012
G1 X199.441 Y106.245 E.0234
G1 X206.485 Y113.289 E.36012
G1 X206.485 Y113.936 E.0234
G1 X199.441 Y106.892 E.36012
G1 X199.441 Y107.539 E.0234
G1 X206.485 Y114.583 E.36012
G1 X206.485 Y115.231 E.0234
G1 X199.441 Y108.186 E.36012
G1 X199.441 Y108.834 E.0234
G1 X206.485 Y115.878 E.36012
G1 X206.485 Y116.525 E.0234
G1 X199.441 Y109.481 E.36012
G1 X199.441 Y110.128 E.0234
G1 X206.485 Y117.172 E.36012
G1 X206.485 Y117.819 E.0234
G1 X199.441 Y110.775 E.36012
G1 X199.441 Y111.422 E.0234
G1 X206.485 Y118.467 E.36012
G1 X206.485 Y119.114 E.0234
G1 X199.441 Y112.07 E.36012
G1 X199.441 Y112.717 E.0234
G1 X206.485 Y119.761 E.36012
G1 X206.485 Y120.408 E.0234
G1 X199.441 Y113.364 E.36012
G1 X199.441 Y114.011 E.0234
G1 X206.485 Y121.055 E.36012
G1 X206.485 Y121.703 E.0234
G1 X199.441 Y114.658 E.36012
G1 X199.441 Y115.306 E.0234
G1 X206.485 Y122.35 E.36012
G1 X206.485 Y122.997 E.0234
G1 X199.441 Y115.953 E.36012
G1 X199.441 Y116.6 E.0234
G1 X206.485 Y123.644 E.36012
G1 X206.485 Y124.291 E.0234
G1 X199.441 Y117.247 E.36012
G1 X199.441 Y117.894 E.0234
G1 X206.485 Y124.939 E.36012
G1 X206.485 Y125.586 E.0234
G1 X199.441 Y118.542 E.36012
G1 X199.441 Y119.189 E.0234
G1 X206.485 Y126.233 E.36012
G1 X206.485 Y126.88 E.0234
G1 X199.441 Y119.836 E.36012
G1 X199.441 Y120.483 E.0234
G1 X206.485 Y127.527 E.36012
G1 X206.485 Y128.175 E.0234
G1 X199.441 Y121.13 E.36012
G1 X199.441 Y121.778 E.0234
G1 X206.485 Y128.822 E.36012
G1 X206.485 Y129.469 E.0234
G1 X199.441 Y122.425 E.36012
G1 X199.441 Y123.072 E.0234
G1 X206.485 Y130.116 E.36012
G1 X206.485 Y130.763 E.0234
G1 X199.441 Y123.719 E.36012
G1 X199.441 Y124.366 E.0234
G1 X206.485 Y131.411 E.36012
G1 X206.485 Y132.058 E.0234
G1 X199.441 Y125.014 E.36012
G1 X199.441 Y125.661 E.0234
G1 X206.485 Y132.705 E.36012
G1 X206.485 Y133.352 E.0234
G1 X199.441 Y126.308 E.36012
G1 X199.441 Y126.955 E.0234
G1 X206.485 Y133.999 E.36012
G1 X206.485 Y134.646 E.0234
G1 X199.441 Y127.602 E.36012
G1 X199.441 Y128.25 E.0234
G1 X206.485 Y135.294 E.36012
G1 X206.485 Y135.941 E.0234
M73 P1 R312
G1 X199.441 Y128.897 E.36012
G1 X199.441 Y129.544 E.0234
G1 X206.485 Y136.588 E.36012
G1 X206.485 Y137.235 E.0234
G1 X199.441 Y130.191 E.36012
G1 X199.441 Y130.838 E.0234
G1 X206.485 Y137.882 E.36012
G1 X206.485 Y138.53 E.0234
G1 X199.441 Y131.486 E.36012
G1 X199.441 Y132.133 E.0234
G1 X206.485 Y139.177 E.36012
G1 X206.485 Y139.824 E.0234
G1 X199.441 Y132.78 E.36012
G1 X199.441 Y133.427 E.0234
G1 X206.485 Y140.471 E.36012
G1 X206.485 Y141.118 E.0234
G1 X199.441 Y134.074 E.36012
G1 X199.441 Y134.721 E.0234
G1 X206.485 Y141.766 E.36012
G1 X206.485 Y142.413 E.0234
G1 X199.441 Y135.369 E.36012
G1 X199.441 Y136.016 E.0234
G1 X206.485 Y143.06 E.36012
G1 X206.485 Y143.707 E.0234
G1 X199.441 Y136.663 E.36012
G1 X199.441 Y137.31 E.0234
G1 X206.485 Y144.354 E.36012
G1 X206.485 Y145.002 E.0234
G1 X199.441 Y137.957 E.36012
G1 X199.441 Y138.605 E.0234
G1 X206.485 Y145.649 E.36012
G1 X206.485 Y146.296 E.0234
G1 X199.441 Y139.252 E.36012
G1 X199.441 Y139.899 E.0234
G1 X206.485 Y146.943 E.36012
G1 X206.485 Y147.59 E.0234
G1 X199.441 Y140.546 E.36012
G1 X199.441 Y141.193 E.0234
G1 X206.485 Y148.238 E.36012
G1 X206.485 Y148.885 E.0234
G1 X199.441 Y141.841 E.36012
G1 X199.441 Y142.488 E.0234
G1 X206.485 Y149.532 E.36012
G1 X206.485 Y150.179 E.0234
G1 X199.441 Y143.135 E.36012
G1 X199.441 Y143.782 E.0234
G1 X206.485 Y150.826 E.36012
G1 X206.485 Y151.474 E.0234
G1 X199.441 Y144.429 E.36012
G1 X199.441 Y145.077 E.0234
G1 X206.485 Y152.121 E.36012
G1 X206.485 Y152.768 E.0234
G1 X199.441 Y145.724 E.36012
G1 X199.441 Y146.371 E.0234
G1 X206.485 Y153.415 E.36012
G1 X206.485 Y154.062 E.0234
G1 X199.441 Y147.018 E.36012
G1 X199.441 Y147.665 E.0234
G1 X206.485 Y154.71 E.36012
G1 X206.485 Y155.357 E.0234
G1 X199.441 Y148.313 E.36012
G1 X199.441 Y148.96 E.0234
G1 X206.485 Y156.004 E.36012
G1 X206.485 Y156.651 E.0234
G1 X199.441 Y149.607 E.36012
G1 X199.441 Y150.254 E.0234
G1 X206.485 Y157.298 E.36012
G1 X206.485 Y157.946 E.0234
G1 X199.441 Y150.901 E.36012
G1 X199.441 Y151.549 E.0234
G1 X206.485 Y158.593 E.36012
G1 X206.485 Y159.24 E.0234
G1 X199.441 Y152.196 E.36012
G1 X199.441 Y152.843 E.0234
G1 X206.485 Y159.887 E.36012
G1 X206.485 Y160.534 E.0234
G1 X199.441 Y153.49 E.36012
G1 X199.441 Y154.137 E.0234
G1 X206.485 Y161.181 E.36012
G1 X206.485 Y161.829 E.0234
G1 X199.441 Y154.785 E.36012
G1 X199.441 Y155.432 E.0234
G1 X206.485 Y162.476 E.36012
G1 X206.485 Y163.123 E.0234
G1 X199.441 Y156.079 E.36012
G1 X199.441 Y156.726 E.0234
G1 X206.485 Y163.77 E.36012
G1 X206.485 Y164.417 E.0234
G1 X199.441 Y157.373 E.36012
G1 X199.441 Y158.021 E.0234
G1 X206.485 Y165.065 E.36012
G1 X206.485 Y165.712 E.0234
G1 X199.441 Y158.668 E.36012
G1 X199.441 Y159.315 E.0234
G1 X206.485 Y166.359 E.36012
G1 X206.485 Y167.006 E.0234
G1 X199.441 Y159.962 E.36012
G1 X199.441 Y160.609 E.0234
G1 X206.485 Y167.653 E.36012
G1 X206.485 Y168.301 E.0234
G1 X199.441 Y161.256 E.36012
G1 X199.441 Y161.904 E.0234
G1 X206.485 Y168.948 E.36012
G1 X206.485 Y169.595 E.0234
G1 X199.441 Y162.551 E.36012
G1 X199.441 Y163.198 E.0234
G1 X206.485 Y170.242 E.36012
G1 X206.485 Y170.889 E.0234
G1 X199.441 Y163.845 E.36012
G1 X199.441 Y164.492 E.0234
G1 X206.485 Y171.537 E.36012
G1 X206.485 Y172.184 E.0234
G1 X199.441 Y165.14 E.36012
G1 X199.441 Y165.787 E.0234
G1 X206.485 Y172.831 E.36012
G1 X206.485 Y173.478 E.0234
G1 X199.441 Y166.434 E.36012
G1 X199.441 Y167.081 E.0234
G1 X206.485 Y174.125 E.36012
G1 X206.485 Y174.773 E.0234
G1 X199.441 Y167.728 E.36012
G1 X199.441 Y168.376 E.0234
G1 X206.485 Y175.42 E.36012
G1 X206.485 Y176.067 E.0234
G1 X199.441 Y169.023 E.36012
G1 X199.441 Y169.67 E.0234
G1 X206.485 Y176.714 E.36012
G1 X206.485 Y177.361 E.0234
G1 X199.441 Y170.317 E.36012
G1 X199.441 Y170.964 E.0234
G1 X206.485 Y178.009 E.36012
G1 X206.485 Y178.656 E.0234
G1 X199.441 Y171.612 E.36012
G1 X199.441 Y172.259 E.0234
G1 X206.485 Y179.303 E.36012
G1 X206.485 Y179.95 E.0234
G1 X199.441 Y172.906 E.36012
G1 X199.441 Y173.553 E.0234
G1 X206.485 Y180.597 E.36012
G1 X206.485 Y181.245 E.0234
